src/images/techno/r.svg

<?xml version="1.0" encoding="UTF-8"?>
<svg width="50px" height="40px" viewBox="0 0 50 40" version="1.1" xmlns="http://www.w3.org/2000/svg" xmlns:xlink="http://www.w3.org/1999/xlink">
    <!-- Generator: Sketch 51.2 (57519) - http://www.bohemiancoding.com/sketch -->
    <title>R</title>
    <desc>Created with Sketch.</desc>
    <defs></defs>
    <g id="Page-1" stroke="none" stroke-width="1" fill="none" fill-rule="evenodd">
        <g id="Technology-Page" transform="translate(-1130.000000, -4206.000000)" fill="#000000" fill-rule="nonzero">
            <g id="API-Section" transform="translate(165.000000, 3809.000000)">
                <g id="Coding" transform="translate(583.000000, 390.000000)">
                    <g id="R" transform="translate(382.000000, 7.000000)">
                        <path d="M19.7988372,39.3255814 L19.7988372,10.2616279 L36.8569767,10.2616279 C42.9674419,10.2616279 44.7453488,15.0523256 44.7453488,17.1034884 C44.7453488,20.3523256 43.727907,25.1418605 37.1093023,26.0825581 C37.1093023,26.0825581 40.1639535,27.1081395 41.2674419,28.9046512 C42.3686047,30.7 47.4604651,39.3232558 47.4604651,39.3232558 L37.872093,39.3232558 C37.872093,39.3232558 33.6302326,30.3581395 32.4418605,29.0744186 C31.255814,27.7918605 30.6604651,27.1930233 29.2174419,27.1930233 C27.7755814,27.1930233 27.7755814,27.8767442 27.7755814,29.1604651 L27.7755814,39.3232558 L19.7988372,39.3232558 L19.7988372,39.3255814 Z M33.6302326,21.5511628 C34.9872093,21.5511628 36.0906977,20.3534884 36.0906977,18.9418605 C36.0906977,17.5313953 35.2418605,16.3337209 33.6302326,16.3337209 L27.8604651,16.3337209 L27.8604651,21.5511628 L33.6302326,21.5511628 Z" id="Shape"></path>
                        <path d="M9.91860465,18.5255814 C9.91860465,12.2383721 18.5813953,7.14186047 29.2639535,7.14186047 C39.9476744,7.14186047 48.6081395,12.2372093 48.6081395,18.5255814 C48.6081395,22.1627907 45.705814,25.3976744 41.1930233,27.4825581 C41.5011628,27.777907 41.777907,28.0988372 41.9930233,28.4523256 C42.1325581,28.6802326 42.3418605,29.022093 42.594186,29.444186 C46.9895349,26.355814 49.7046512,22.1302326 49.7046512,17.4616279 C49.7046512,8.00813953 38.5918605,0.343023256 24.8825581,0.343023256 C11.1732558,0.343023256 0.0593023256,8.00581395 0.0593023256,17.4616279 C0.0593023256,25.5046512 8.10348837,32.2488372 18.9453488,34.0837209 L18.9453488,28.1465116 C13.5267442,26.1290698 9.92209302,22.5767442 9.92209302,18.5244186" id="Shape"></path>
                    </g>
                </g>
            </g>
        </g>
    </g>
</svg>

<svg width="50" height="40" xmlns="http://www.w3.org/2000/svg">
  <g fill="#000" fill-rule="nonzero">
    <path d="M19.799 39.326V10.262h17.058c6.11 0 7.888 4.79 7.888 6.841 0 3.25-1.017 8.039-7.636 8.98 0 0 3.055 1.025 4.158 2.822C42.37 30.7 47.46 39.323 47.46 39.323h-9.588s-4.242-8.965-5.43-10.249c-1.186-1.282-1.782-1.881-3.225-1.881-1.441 0-1.441.684-1.441 1.967v10.163h-7.977v.003zM33.63 21.55c1.357 0 2.46-1.198 2.46-2.61 0-1.41-.848-2.607-2.46-2.607h-5.77v5.217h5.77z"/>
    <path d="M9.919 18.526c0-6.288 8.662-11.384 19.345-11.384 10.684 0 19.344 5.095 19.344 11.384 0 3.637-2.902 6.872-7.415 8.957.308.295.585.616.8.97.14.227.349.57.601.991 4.396-3.088 7.11-7.314 7.11-11.982C49.705 8.008 38.593.343 24.884.343 11.173.343.059 8.006.059 17.462c0 8.043 8.044 14.787 18.886 16.622v-5.937c-5.418-2.018-9.023-5.57-9.023-9.623"/>
  </g>
</svg>
